brandFactory_export/3.Masa/Tarjeta de credito _3Masa.svg

<?xml version="1.0" encoding="UTF-8"?>
<svg width="24px" height="24px" viewBox="0 0 24 24" version="1.1" xmlns="http://www.w3.org/2000/svg" xmlns:xlink="http://www.w3.org/1999/xlink">
    <title>3.Masa/Tarjeta de credito _3Masa</title>
    <g id="Symbols" stroke="none" stroke-width="1" fill="none" fill-rule="evenodd">
        <g id="3.Masa/Tarjeta-de-credito-_3Masa" fill="#5CB615" fill-rule="nonzero">
            <path d="M21.8554622,19.2537815 L1.82857143,19.2537815 C1.67394958,19.2537815 1.54957983,19.1327731 1.54957983,18.9815126 L1.54957983,14.0537815 L22.1344538,14.0537815 L22.1344538,18.9815126 C22.1310924,19.1327731 22.0067227,19.2537815 21.8554622,19.2537815 L21.8554622,19.2537815 Z M1.82857143,5.4789916 L21.8554622,5.4789916 C22.010084,5.4789916 22.1344538,5.6 22.1344538,5.7512605 L22.1344538,8.05378151 L1.54957983,8.05378151 L1.54957983,5.7512605 C1.54957983,5.6 1.67394958,5.4789916 1.82857143,5.4789916 Z M23.6571429,8.79327731 C23.6571429,8.75630252 23.6403361,8.72605042 23.6369748,8.69243697 L23.6369748,5.7512605 C23.6369748,4.78319328 22.8369748,4 21.8554622,4 L1.82857143,4 C0.843697479,4 0.043697479,4.78319328 0.043697479,5.7512605 L0.043697479,8.73613445 C0.0403361345,8.75630252 0.0302521008,8.77310924 0.0302521008,8.79327731 L0.0302521008,13.3142857 C0.0302521008,13.3344538 0.0403361345,13.3512605 0.043697479,13.3714286 L0.043697479,18.9815126 C0.043697479,19.9462185 0.843697479,20.7327731 1.82857143,20.7327731 L21.8554622,20.7327731 C22.8369748,20.7327731 23.6369748,19.9462185 23.6369748,18.9815126 L23.6369748,13.4117647 C23.6403361,13.3781513 23.6571429,13.3478992 23.6571429,13.3109244 L23.6571429,8.79327731 Z" id="Tarjeta-de-credito-_3Masa"></path>
        </g>
    </g>
</svg>

<svg width="24" height="24" viewBox="0 0 24 24" xmlns="http://www.w3.org/2000/svg"><path d="M21.855 19.254H1.83a.275.275 0 01-.28-.272v-4.928h20.585v4.928a.28.28 0 01-.279.272zM1.83 5.479h20.026c.155 0 .28.121.28.272v2.303H1.55V5.75c0-.151.124-.272.279-.272zm21.828 3.314c0-.037-.017-.067-.02-.1V5.75c0-.968-.8-1.751-1.782-1.751H1.83C.844 4 .044 4.783.044 5.751v2.985c-.004.02-.014.037-.014.057v4.521c0 .02.01.037.014.057v5.61c0 .965.8 1.752 1.785 1.752h20.026c.982 0 1.782-.787 1.782-1.751v-5.57c.003-.034.02-.064.02-.101V8.793z" fill="#5CB615" fill-rule="nonzero"/></svg>
